static/img/instagram.svg

<svg xmlns="http://www.w3.org/2000/svg" width="65.586" height="63.764" viewBox="0 0 65.586 63.764">
    <defs>
        <style>
            .cls-1{fill:#17a4d6}.cls-2{filter:url(#Trazado_1)}
        </style>
        <filter id="Trazado_1" width="65.586" height="63.764" x="0" y="0" filterUnits="userSpaceOnUse">
            <feOffset dy="3"/>
            <feGaussianBlur result="blur" stdDeviation="3"/>
            <feFlood flood-opacity=".161"/>
            <feComposite in2="blur" operator="in"/>
            <feComposite in="SourceGraphic"/>
        </filter>
    </defs>
    <g id="instagram-logo" transform="translate(9 6)">
        <g class="cls-2" transform="translate(-9 -6)">
            <path id="Trazado_1-2" d="M34.454 0H13.132A12.9 12.9 0 0 0 0 12.629v20.506a12.9 12.9 0 0 0 13.132 12.629h21.322a12.9 12.9 0 0 0 13.132-12.629V12.629A12.9 12.9 0 0 0 34.454 0zm8.91 33.135a8.754 8.754 0 0 1-8.91 8.569H13.132a8.754 8.754 0 0 1-8.91-8.569V12.629a8.754 8.754 0 0 1 8.91-8.569h21.322a8.755 8.755 0 0 1 8.91 8.569v20.506z" class="cls-1" data-name="Trazado 1" transform="translate(9 6)"/>
        </g>
        <path id="Trazado_2" d="M53.23 40.97a11.8 11.8 0 1 0 12.261 11.792A12.047 12.047 0 0 0 53.23 40.97zm0 19.523a7.737 7.737 0 1 1 8.04-7.731 7.9 7.9 0 0 1-8.04 7.731z" class="cls-1" data-name="Trazado 2" transform="translate(-29.437 -29.88)"/>
        <path id="Trazado_3" d="M122.017 28.251a3.172 3.172 0 0 0-2.187.872 2.894 2.894 0 0 0 0 4.212 3.183 3.183 0 0 0 4.377 0 2.9 2.9 0 0 0 0-4.212 3.173 3.173 0 0 0-2.19-.872z" class="cls-1" data-name="Trazado 3" transform="translate(-85.448 -20.604)"/>
    </g>
</svg>

<svg id="instagram-logo" xmlns="http://www.w3.org/2000/svg" width="47.586" height="45.764" viewBox="0 0 47.586 45.764">
  <path id="Trazado_1" data-name="Trazado 1" d="M34.454,0H13.132A12.9,12.9,0,0,0,0,12.629V33.135A12.9,12.9,0,0,0,13.132,45.764H34.454A12.9,12.9,0,0,0,47.586,33.135V12.629A12.9,12.9,0,0,0,34.454,0Zm8.91,33.135a8.754,8.754,0,0,1-8.91,8.569H13.132a8.754,8.754,0,0,1-8.91-8.569V12.629a8.754,8.754,0,0,1,8.91-8.569H34.454a8.755,8.755,0,0,1,8.91,8.569V33.135Z" transform="translate(0 0)" fill="#515151"/>
  <path id="Trazado_2" data-name="Trazado 2" d="M53.23,40.97A11.8,11.8,0,1,0,65.491,52.762,12.047,12.047,0,0,0,53.23,40.97Zm0,19.523a7.737,7.737,0,1,1,8.04-7.731A7.9,7.9,0,0,1,53.23,60.493Z" transform="translate(-29.437 -29.88)" fill="#515151"/>
  <path id="Trazado_3" data-name="Trazado 3" d="M122.017,28.251a3.172,3.172,0,0,0-2.187.872,2.894,2.894,0,0,0,0,4.212,3.183,3.183,0,0,0,4.377,0,2.9,2.9,0,0,0,0-4.212A3.173,3.173,0,0,0,122.017,28.251Z" transform="translate(-85.448 -20.604)" fill="#515151"/>
</svg>
